X:20
T:Angus MacDOnald of Annan
C:William Livingstone
B:William Livingstone Volume 1
H:
O:Kevin Fraser
Z:Kevin Fraser
Q:1/4=120
K:HP
M:C
L:1/8
R:Strathspey
U: R = ///
U: r = //
U: V = !accent!
V:M gstem=up stem=down name="Melody" sname="Melody" 
V:H gstem=up stem=down name="Harmony" sname="Harmony"
V:C gstem=up stem=down name="C-Harmony" sname="C-Harmony"
V:S gstem=up stem=down clef=none dyn=up name="Snare" sname="Snare"
V:B gstem=up stem=down clef=none dyn=up name="Bass" sname="Bass"
V:T gstem=up stem=down clef=none dyn=up name="Tenor" sname="Tenor"
V:BB gstem=up stem=down name="Brass Bass" sname="Bass" transpose=-1  octave=-2 clef=bass
V:BC gstem=up stem=down name="Brass Chord" sname="ABCD-D" transpose=-1
V:BD gstem=up stem=down name="Brass Chord 2" sname="ABCD-B" transpose=-1
V:P gstem=up stem=down name="Piano" sname="Piano" transpose=0 octave=-1
I:MIDI=program 110
%%MIDI gracedivider 40
% %score {M BC BD BB}
% %MIDI program 109 #bagpipes
%%MIDI vol 100
[V:M]  a | {AGAG}A2 {g}A>B {g}c<e {gef}e>c | {gfg}f>e {ag}a>e {gfg}f>e {g}(3fga | {AGAG}A2 {g}A>B {g}c<e {gef}e>c | {g}(3fga {ef}e>c {g}(3Bcd {gcd}c>B | 
[V:M]    | {AGAG}A2 {g}A>B {g}c<e {gef}e>c | {gfg}f>e {ag}a>e {g}(3fga {fg}f>e |   {AGAG}A2 {g}A>B {g}c<e {gef}e>c | {g}(3fga {ef}e>c {g}(3Bcd {gcd}c>B |
[V:M]    | {g}c<e {gef}e>c {g}A>{d}c {gef}e>c | {g}d<f {g}f>d {g}A>d {g}f<a | {g}c<e {gef}e>c {g}A>c {gef}e>c | {Gdc}d>e {g}(3fed {g}(3Bcd {gcd}c>B 